X: 14448
T: Galway, The
R: hornpipe
M: 4/4
K: Dmajor
(3GFE|:D2FA dAFD|CD EF G2FE|DEFA dcd2|(3efe (3dcB (3ABA (3GFE|
DEFA dAFD|CDEF G2 (3EFG|ABcB AGFE|1 (3DFD CED2FE:|2 (3DFD CED2de||
|:f2fg fedc|B^ABc dcdf|e3f edcB|(3Ace (3aec A2Bc|
d2de fdAF|(3GGG (3AAA (3BBB (3^A^A^A|ABcB AGFE|1 (3DFD CE D2de:|2 (3DFD CE D2EC||

